Collapse/img/games/player_rust_skeleton.svg

<svg width="120" height="367" viewBox="0 0 120 367" fill="none" xmlns="http://www.w3.org/2000/svg">
<path d="M104.889 105.754L105.872 105.573C105.869 105.557 105.866 105.54 105.862 105.524L104.889 105.754ZM111.148 139.785L112.138 139.643C112.136 139.63 112.134 139.617 112.132 139.605L111.148 139.785ZM51.8037 255.005L50.8062 254.934C50.8052 254.948 50.8045 254.963 50.8041 254.978L51.8037 255.005ZM74.5556 132.007H73.5556C73.5556 132.037 73.5569 132.067 73.5597 132.098L74.5556 132.007ZM71.2527 73.4349L70.2865 73.6925L71.2527 73.4349ZM97.2958 242.148L98.2943 242.094L97.2958 242.148ZM97.2721 242.58L98.2589 242.742L97.2721 242.58ZM94.2216 194.663L94.9212 193.948L94.2216 194.663ZM94.8195 195.985L93.8209 196.039L94.8195 195.985ZM57.175 192.246L56.6733 191.381L57.175 192.246ZM56.1837 193.833L57.1811 193.904L56.1837 193.833ZM49.9305 321.366L48.9691 321.091L49.9305 321.366ZM97.8554 83.5597L97.7588 82.5643L97.8554 83.5597ZM99.9948 85.0894L99.0217 85.3199L99.9948 85.0894ZM26.8983 119.437L26.0062 118.985L26.8983 119.437ZM87.4553 308.243L88.1025 307.481L87.4553 308.243ZM86.7763 306.394L87.763 306.556L87.763 306.556L86.7763 306.394ZM47.5813 81.6671L47.429 82.6554L47.5813 81.6671ZM74.7078 84.8335L47.7335 80.6788L47.429 82.6554L74.4033 86.8101L74.7078 84.8335ZM44.6007 82.2878L26.0062 118.985L27.7903 119.889L46.3848 83.1918L44.6007 82.2878ZM74.6522 86.8171L97.952 84.555L97.7588 82.5643L74.4589 84.8265L74.6522 86.8171ZM99.0217 85.3199L103.916 105.985L105.862 105.524L100.968 84.8589L99.0217 85.3199ZM78.3871 178.786L56.6733 191.381L57.6768 193.111L79.3906 180.516L78.3871 178.786ZM48.9691 321.091L42.7793 342.725L44.7022 343.275L50.8919 321.641L48.9691 321.091ZM78.1893 180.365L93.522 195.378L94.9212 193.948L79.5885 178.936L78.1893 180.365ZM86.808 309.005L107.131 326.261L108.425 324.736L88.1025 307.481L86.808 309.005ZM103.905 105.935L110.165 139.966L112.132 139.605L105.872 105.573L103.905 105.935ZM110.158 139.928L114.01 166.667L115.99 166.382L112.138 139.643L110.158 139.928ZM24.1951 118.927L11.9191 90.2894L10.0809 91.0774L22.3569 119.715L24.1951 118.927ZM55.1862 193.761L50.8062 254.934L52.8011 255.077L57.1811 193.904L55.1862 193.761ZM50.8041 254.978L49.0073 320.843L51.0065 320.897L52.8033 255.032L50.8041 254.978ZM93.8209 196.039L96.2972 242.201L98.2943 242.094L95.818 195.931L93.8209 196.039ZM96.2854 242.417L85.7895 306.231L87.763 306.556L98.2589 242.742L96.2854 242.417ZM73.5556 85.8218V132.007H75.5556V85.8218H73.5556ZM73.5597 132.098L77.893 179.741L79.8848 179.56L75.5514 131.916L73.5597 132.098ZM70.1852 62V72.9196H72.1852V62H70.1852ZM70.2865 73.6925L73.5893 86.0794L75.5218 85.5642L72.2189 73.1772L70.2865 73.6925ZM70.1852 72.9196C70.1852 73.1805 70.2192 73.4404 70.2865 73.6925L72.2189 73.1772C72.1965 73.0932 72.1852 73.0066 72.1852 72.9196H70.1852ZM96.2972 242.201C96.3011 242.274 96.2971 242.346 96.2854 242.417L98.2589 242.742C98.2941 242.528 98.306 242.311 98.2943 242.094L96.2972 242.201ZM93.522 195.378C93.7008 195.553 93.8075 195.789 93.8209 196.039L95.818 195.931C95.7778 195.181 95.4578 194.474 94.9212 193.948L93.522 195.378ZM56.6733 191.381C55.814 191.879 55.2572 192.771 55.1862 193.761L57.1811 193.904C57.2047 193.574 57.3904 193.277 57.6768 193.111L56.6733 191.381ZM50.8919 321.641C50.9611 321.399 50.9997 321.149 51.0065 320.897L49.0073 320.843C49.005 320.927 48.9921 321.01 48.9691 321.091L50.8919 321.641ZM97.952 84.555C98.4497 84.5067 98.9065 84.8333 99.0217 85.3199L100.968 84.8589C100.622 83.3994 99.2517 82.4194 97.7588 82.5643L97.952 84.555ZM26.0062 118.985C25.6226 119.742 24.5295 119.707 24.1951 118.927L22.3569 119.715C23.3602 122.055 26.6393 122.16 27.7903 119.889L26.0062 118.985ZM88.1025 307.481C87.8349 307.253 87.706 306.902 87.763 306.556L85.7895 306.231C85.6186 307.271 86.0052 308.323 86.808 309.005L88.1025 307.481ZM47.7335 80.6788C46.4512 80.4812 45.1872 81.1305 44.6007 82.2878L46.3848 83.1918C46.5803 82.806 47.0016 82.5896 47.429 82.6554L47.7335 80.6788Z" fill="#DB2F3A"/>
</svg>

<svg width="120" height="367" fill="none" xmlns="http://www.w3.org/2000/svg"><path d="M104.889 105.754l.983-.181-.01-.049-.973.23zm6.259 34.031l.99-.142-.006-.038-.984.18zm-59.344 115.22l-.998-.071a1 1 0 00-.002.044l1 .027zm22.752-122.998h-1c0 .03 0 .06.004.091l.996-.091zm-3.303-58.572l-.966.257.966-.257zm26.043 168.713l.998-.054-.998.054zm-.024.432l.987.162-.987-.162zm-3.05-47.917l.7-.715-.7.715zm.598 1.322l-1 .054 1-.054zm-37.645-3.739l-.502-.865.502.865zm-.991 1.587l.997.071-.997-.071zM49.93 321.366l-.962-.275.962.275zM97.855 83.56l-.096-.996.096.996zm2.14 1.53l-.973.23.973-.23zm-73.097 34.347l-.892-.452.892.452zm60.557 188.806l.648-.762-.648.762zm-.679-1.849l.987.162-.987-.162zM47.581 81.667l-.152.988.152-.988zm27.127 3.166L47.734 80.68l-.305 1.976 26.974 4.155.305-1.977zM44.6 82.288l-18.595 36.697 1.784.904 18.595-36.697-1.784-.904zm30.051 4.53l23.3-2.263-.193-1.99-23.3 2.261.193 1.991zm24.37-1.498l4.894 20.665 1.946-.461-4.894-20.665-1.946.46zm-20.635 93.466l-21.714 12.595 1.004 1.73 21.714-12.595-1.004-1.73zM48.97 321.091l-6.19 21.634 1.923.55 6.19-21.634-1.923-.55zm29.22-140.726l15.333 15.013 1.4-1.43-15.334-15.012-1.399 1.429zm8.619 128.64l20.323 17.256 1.294-1.525-20.322-17.255-1.295 1.524zm17.097-203.07l6.26 34.031 1.967-.361-6.26-34.032-1.967.362zm6.253 33.993l3.852 26.739 1.98-.285-3.852-26.739-1.98.285zm-85.963-21.001L11.92 90.289l-1.838.788 12.276 28.638 1.838-.788zm30.991 74.834l-4.38 61.173 1.995.143 4.38-61.173-1.995-.143zm-4.382 61.217l-1.797 65.865 2 .054 1.796-65.865-1.999-.054zm43.017-58.939l2.476 46.162 1.997-.107-2.476-46.163-1.997.108zm2.464 46.378L85.79 306.231l1.973.325 10.496-63.814-1.974-.325zM73.555 85.822v46.185h2V85.822h-2zm.005 46.276l4.333 47.643 1.992-.181-4.334-47.644-1.991.182zM70.185 62v10.92h2V62h-2zm.102 11.692l3.302 12.387 1.933-.515-3.303-12.387-1.932.515zm-.102-.772c0 .26.034.52.102.772l1.932-.515a1 1 0 01-.034-.257h-2zM96.297 242.2a.997.997 0 01-.012.216l1.974.325c.035-.214.047-.431.035-.648l-1.997.107zm-2.775-46.823a1 1 0 01.299.661l1.997-.108a3.001 3.001 0 00-.897-1.983l-1.399 1.43zm-36.849-3.997a3 3 0 00-1.487 2.38l1.995.143a1 1 0 01.496-.793l-1.004-1.73zm-5.781 130.26a3 3 0 00.114-.744l-1.999-.054a1.007 1.007 0 01-.038.248l1.923.55zm47.06-237.086a1 1 0 011.07.765l1.946-.461a3 3 0 00-3.21-2.295l.194 1.991zm-71.946 34.43a1 1 0 01-1.81-.058l-1.84.788c1.004 2.34 4.283 2.445 5.434.174l-1.784-.904zM88.103 307.48a1.002 1.002 0 01-.34-.925l-1.974-.325a3 3 0 001.019 2.774l1.294-1.524zM47.733 80.679a3 3 0 00-3.132 1.609l1.784.904a1 1 0 011.044-.537l.304-1.976z" fill="#DB2F3A"/></svg>
